X:1
T:Connaughtmans Rambles No. 2
Z:EW
M:6/8
R:Jig
L:1/8
K:D
|: FAA dAA | BAB dAG | FGA dfe | dBB BAG |
FAA dAA | BAB def | ~g3 fed |1 edB BAG:|2 edB B2g |]
|: faf ~g3 | afe dcd | fff ggg | afd efd |
faf ggg | afe def | ggg fed |1 edB B2g:|2 edB BAG |]
